X:1
T:Schifferlied
T:Johannes Daniel Falk
T:Louise Reichardt
T:Schifferlied
T:CPDL - Creative Commons Attribution Non Commercial 3.0
C:Louise Reichardt
Z:Johannes Daniel Falk
Z:CPDL - Creative Commons Attribution Non Commercial 3.0
%%score [ ( 1 2 ) ( 3 4 ) ]
L:1/8
Q:1/4=80
M:4/4
K:G
V:1 treble-8 nm="Tenor"
V:2 treble-8 
V:3 bass nm="Bass"
V:4 bass 
V:1
"^Mäßig" B2 B2 B2 d2 | d2 c2 c4 | B2 d2 ed cB | B4 A4 | B2 B2 B2 d2 | d2 c2 c4 | B2 G2 A2 F2 | %7
w: 1.~Wie mit grimm- gem|Un- ver- stand|Wel- len sich _ be- *|we- gen!|Nir- gends Ret- tung,|nir- gends Land|vor des Sturm- winds|
w: 2.~Wie vor un- serm|An- ge- sicht|Mond und Ster- * ne _|schwin- den!|Wenn des Schiff- leins|Ru- der bricht,|wo nun Ret- tung|
w: 3.~Einst, in mei- ner|letz- ten Not,|lass mich nicht _ ver- *|sin- ken!|Sollt ich von dem|bit- tern Tod|Well auf Wel- le|
w: 4.~Nach dem Stur- me|fah- ren wir|si- cher durch _ die _|Wel- len,|las- sen, gro- ßer|Schöp- fer, dir|un- ser Lob er-|
 A4 G4 | B2 B2 G2 B2 | cB cd c4 | A2 A2 F2 A2 | BA Bc B4 |!<(! d4 B2 g2!<)! | g6 e2 | %14
w: Schlä- gen!|Ei- ner ist, der|in _ der _ Nacht,|Ei- ner ist, der|uns _ be- * wacht,|Christ, Ky- ri-|e, du|
w: fin- den?|Wo denn sonst als|bei _ dem _ Herrn?|Se- het ihr den|A- * bend- * stern?||* er-|
w: trin- ken,|rei- che mir dann|lieb- * ent- * brannt,|o Herr, dei- ne|Glau- * bens- * hand!||* komm|
w: schal- len.|Lo- bet ihn mit|Herz _ und _ Mund,|lo- bet ihn zu|je- * der _ Stund!||* komm|
 de!>(! dc B2 A2!>)! | G8 |] %16
w: schum- * merst _ auf dem|See!|
w: schein _ uns _ auf dem|See!|
w: zu _ uns _ auf dem|See!|
w: zu _ uns _ auf dem|See!|
V:2
 G2 G2 G2 G2 | B2 A2 A4 | G2 B2 cB AG | G4 F4 | G2 G2 G2 G2 | A2 A2 A4 | G2 G2 E2 F2 | F4 G4 | %8
 B2 B2 G2 G2 | A2 AB A4 | F2 F2 D2 F2 | GF G2 G4 | B4 B2 d2 | e6 c2 | Bc BG G2 F2 | G8 |] %16
V:3
 D,2 D,2 D,2 D,2 | E,2 G,2 F,4 | G,2 G,2 G,2 E,2 | D,4 D,4 | D,2 D,2 D,2 D,2 | E,2 G,2 F,4 | %6
 D,2 D,2 E,2 D,2 | C,4 B,,4 | G,2 G,2 G,2 E,2 | E,D, E,2 E,4 | D,2 D,2 D,2 D,2 | D,2 D,E, D,4 | %12
 G,4 G,2 G,2 | C6 G,2 | G,3 E, D,2 D,2 | B,,8 |] %16
V:4
 G,,2 G,,2 G,,2 B,,2 | A,,2 A,,2 D,4 | G,,2 G,,2 C,2 C,2 | D,4 D,4 | G,,2 G,,2 G,,2 B,,2 | %5
 C,2 E,2 D,4 | G,,2 B,,2 C,2 D,2 | G,,4 G,,4 | G,2 G,2 E,2 E,2 | A,,2 A,,2 C,4 | D,2 D,2 D,2 D,2 | %11
 G,,2 G,,2 G,,4 | G,4 G,2 B,,2 | C,6 C,2 | D,3 E, D,2 D,2 | G,,8 |] %16

